X:1
T:Title
%%score [ ( 1 2 ) ( 3 4 ) ] { ( 5 6 ) | 7 }
L:1/8
Q:1/4=120
M:4/4
K:G
V:1 treble nm="Midi_74"
V:2 treble 
V:3 bass nm="Midi_74"
V:4 bass 
V:5 treble nm="Org."
V:6 treble 
V:7 bass 
V:1
 (e6 B2) | G4 F4 | E8 || (c6 B2) | ^d4 e4 | f4 e4 |{e} ^d8 || (f6 ^d2) | B4 A4 | G8 || c8 | %11
 B4 (E2 F2) | G4"^John Camidge\n(1790-1859)" F4 | E8 |] %14
V:2
 E8 | E4 ^D4 | E8 || E8 | A4 G4 | F4 G4 | F8 || (^D6 F2) | F4 F4 | E8 || ^D8 | E4 E4 | E4 ^D4 | %13
 E8 |] %14
V:3
 (G,6 B,2) | B,4 A,4 | G,8 || (A,6 B,2) | B,4 B,4 | B,4 B,4 | B,8 || B,8 | ^D4 D4 | E8 || A,8 | %11
 B,4 (G,2 A,2) | B,4 A,4 | G,8 |] %14
V:4
 (E,6 G,2) | B,4 B,,4 | C,8 || (A,6 G,2) | F,4 E,4 | ^D,4 E,4 | B,8 || (B,,6 ^D,2) | F,4 B,4 | %9
 C8 || A,8 | G,4 C,4 | B,,4 B,,4 | E,8 |] %14
V:5
 [Be]6 B2 | G4 F4 | E8 || c6 B2 | ^d4 e4 | f4 e4 |{e} ^d8 || f6 ^d2 | B4 A4 | G8 || c8 | %11
 B4 [CE]2 F2 | G4 F4 | E8 |] %14
V:6
 [EG]8 | E4 ^D4 | E8 || E8 | [FAB]4 [GB]4 | [FAB]4 [GB]4 | [FB]8 || [FB^d]8 | [^DF]4 [DF]4 | E8 || %10
 [^DF]8 | [EG]4 E4 | [B,E]4 [A,B,^D]4 | E8 |] %14
V:7
 [E,,E,]6 [G,,G,]2 | [B,,B,]4 [B,,A,]4 | [C,G,]8 || [A,,A,]6 [G,,G,]2 | [F,,F,]4 [E,,E,]4 | %5
 [^D,,^D,]4 [E,,E,]4 | [B,,B,]8 ||"^8 vi" B,,6 ^D,2 | F,4 B,,4 | C,8 || [A,,A,]8 | %11
 [G,,G,]4"^8 vi" C,4 | B,,4 B,,4 | [E,,E,G,B,]8 |] %14

